!!!!SEGMENT: pl-cz--d-ii-43--003_elsner-jozef--msza-pasterska-graduale.krn
!!!cenid: 18xx:199
!!!COM: Elsner, Józef
!!!COM-rismID: pe30000957
!!!CDT: 1769/06/01-1854/04/18
!!!CNT: Polish
!!!OPR: Msza pasterska
!!!OTL: Graduale
!!!OMV: 003
!!!OMD: GRADUALE
!!!OMD: Andantino
!!!PDT: 1843
!!!AGN: Sacred; Mass
!!!SMS-siglum: PL-CZ
!!!SMS-shelfmark: D II-43
!!!SMS-shelfwork: 001-003 M
!!!NIFC-rismSourceID: 1001174842
!!!NIFC-rismChildID: 1001174842
!!!NIFC-islandoraID:
!!!URL-pdf-islandora:
!!!URL-scan:
!!!IIIF:
!!!ONB-nifc: UWAGA: części Mszy: Kyrie, Gloria, Graduale, Credo, Offertorium, Sanctus, Benedictus, Agnus
!!!AIN: 1 cello 1 organ 1 soprn
!!!key:
**kern	**kern	**kern	**kern	**text	**text
*part3	*part3	*part2	*part1	*part1	*part1
*staff4	*staff3	*staff2	*staff1	*staff1	*staff1
*Iorgan	*Iempty	*Icello	*Isoprn	*	*
*I"Organo	*	*I"Violoncello	*I"Soprano Solo	*	*
*I'Org	*	*I'Vc	*I'S	*	*
*clefF4	*clefG2	*clefF4	*clefG2	*	*
*k[f#c#g#]	*k[f#c#g#]	*k[f#c#g#]	*k[f#c#g#]	*	*
*A:	*A:	*A:	*A:	*	*
*M2/4	*M2/4	*M2/4	*M2/4	*	*
*>[A,B,B,C]	*>[A,B,B,C]	*>[A,B,B,C]	*>[A,B,B,C]	*	*
*>A	*>A	*>A	*>A	*	*
=1	=1	=1	=1	=1	=1
2AA\ [2A	[<2e\	2AA\ [2E	2r	.	.
=2||	=2||	=2||	=2||	=2||	=2||
*>B	*>B	*>B	*>B	*	*
!LO:TX:t=[segno]:problem=na kresce taktowej przed t. 2	!LO:TX:t=[segno]:problem=na kresce taktowej przed t. 2	!LO:TX:t=[segno]:problem=na kresce taktowej przed t. 2	!LO:TX:t=[segno]:problem=na kresce taktowej przed t. 2	!	!
2AA\ 2A_	2e\]	2AA\ 2E_	4r	.	.
.	.	.	8r	.	.
.	.	.	16cc#\LL	Po-	U-
.	.	.	16dd\JJ	.	.
=3	=3	=3	=3	=3	=3
2AA\ 2A]	2e\ 2a 2cc#	4.AA\ 4.E]	4.ee\	-wstań-	-znaj-
.	.	8r	8cc#\	-cie	-cie
=4	=4	=4	=4	=4	=4
2AA\ [2A	2f#\ 2a 2ccn	2r	(8ee\L	Swia-	praw-
.	.	.	8dd#X\J	.	.
.	.	.	8ff#\	-tło-	-dę
.	.	.	8dd#\)	-śći	w tem
=5	=5	=5	=5	=5	=5
2AA\ 2A]	4e\ 4a 4cc#X	2r	2ee\	Sy-	sło-
.	4e\ 4g# 4b	.	.	.	.
=6	=6	=6	=6	=6	=6
.	.	.	16qqee/LL	.	.
.	.	.	16qqdd/JJ	.	.
4AA\ 4A	4c#/ 4e 4a	2r	4cc#\	-ny	-wie
4AA\ 4A	4e/ 4a 4cc#	.	8r	.	.
.	.	.	8cc#\	Po-	My
=7	=7	=7	=7	=7	=7
2GG#\ 2G#	2e\ 2b 2dd	2r	8dd\L	-kor-	wszy-
.	.	.	8b\J	.	.
.	.	.	4dd\	-nem	-scy
=8	=8	=8	=8	=8	=8
*	*^	*	*	*	*
4AA\ 4A	4a/ 4cc#	2e\	2r	4cc#\	czu-	Bra-
8GG#\L 8G#	8b/L 8dd	.	.	8dd\	-ciem	-cia
8AA\J 8A	8a/J 8cc#	.	.	8cc#\	prze-	ie-
*	*v	*v	*	*	*	*
=9	=9	=9	=9	=9	=9
2EE/ 2E	4e/ 4g# 4b	2r	4b\	-ię-	-ste-
.	4f#/ 4a	.	16b\LL	.	.
.	.	.	16cc#\	.	.
.	.	.	16dd#X\	.	.
.	.	.	16ee\JJ	.	.
=10	=10	=10	=10	=10	=10
!!LO:LB:g=original
2EE/ [2E	4e/ 4g#	[2EE/	4b\	-te	-śmy
.	4g#/ 4b	.	8r	.	.
.	.	.	16b\LL	Pan	My
.	.	.	16cc#\JJ	.	.
=11	=11	=11	=11	=11	=11
2EE/ 2E_	2g#\ 2b 2dd	2EE/_	4.dd\	z gór-	wszy-
.	.	.	8b\	-néy	-scy
=12	=12	=12	=12	=12	=12
2EE/ 2E]	2a#X\ 2cc#	2EE/]	8dd\L	Nie-	Je-
.	.	.	8cc#\J	.	.
.	.	.	8ee\	-ba	-go
.	.	.	8cc#\	Kra-	Sy-
=13	=13	=13	=13	=13	=13
*	*^	*	*	*	*
4EE/ 4E	[2dd/	4g#\ 4b	(4EE/	2dd\	-i-	-no-
4FFn/ 4Fn	.	4an\	4FFn/	.	.	.
=14	=14	=14	=14	=14	=14	=14
.	.	.	.	16qqdd/LL	.	.
.	.	.	.	16qqcc#/JJ	.	.
!	!	!	!LO:TX:a:t=P:problem=mixed beam	!	!	!
(2EE/ 2E	4dd/]	4g#\ 4b 4dd	8EE/L)	4b\	-ny	-wie
.	.	.	8E\J	.	.	.
.	4ryy	4e\ 4g# 4b	16E\LL	8r	.	.
.	.	.	16D\	.	.	.
.	.	.	16C#\	8b\	o-	Mi-
.	.	.	16BB\JJ	.	.	.
*	*v	*v	*	*	*	*
=15	=15	=15	=15	=15	=15
4AA/)	4e\ 4a 4cc#	4AA/	8cc#\L	-gła-	-ło-
.	.	.	8ee\J	.	.
4C#/	4a\ 4ee	4C#/	4a\	-sza	-śćią
=16	=16	=16	=16	=16	=16
*	*^	*	*	*	*
2D\	8ee#X/L	4a\	(2D\	8ee#X\L	Na-	Chwa-
.	8ff#/J	.	.	8ff#\J	-u-	.
.	4b/ 4dd	4f#\	.	8dd\L	.	-łę
.	.	.	.	8b\J	-ki	mu
=17	=17	=17	=17	=17	=17	=17
2E\	4a/ 4cc#	2e\	2E\)	4een\	Swię-	wznieś-
.	4g#/ 4b	.	.	16ee\LL	.	.
.	.	.	.	16ff#\	.	.
.	.	.	.	16ee\	.	.
.	.	.	.	16dd\JJ	.	.
=18	=18	=18	=18	=18	=18	=18
4AA/	4a/ 4cc#	2e\	4AA/	4cc#\	-te	-my
4GG#X/	4b/ 4dd	.	4GG#/	8r	.	.
.	.	.	.	8b\	o-	mi-
=19	=19	=19	=19	=19	=19	=19
4AA/	4e/ 4a 4cc#	4rcyy	4AA/	8cc#\L	-gła-	-ło-
.	.	.	.	8ee\J	.	.
4C#/	4ee/	4a\	4C#/	[4aa\	-sza	-śćią
*	*v	*v	*	*	*	*
=20	=20	=20	=20	=20	=20
!!LO:LB:g=original
*	*	*	*^	*	*
!	!	!	!	!LO:N:vis=4	!	!
2D\	4a\ 4ff#	2D\	8aa/]	8aa\	.	.
!	!	!	!	!LO:N:vis=4	!	!
.	.	.	8ff#/	8ff#\	na-	chwa-
.	4f#\ 4b 4dd	.	8dd\	4ryy	-u-	-łę
.	.	.	8b\	.	-ki	mu
*	*	*	*v	*v	*	*
=21	=21	=21	=21	=21	=21
2E\	8a\L 8cc#	(2E\	[4ee\	Swię-	wznies-
.	8e\J	.	.	.	.
.	4a\ 4cc#	.	(16ee\LL]	.	.
.	.	.	16ff#\	.	.
.	.	.	16ee\	.	.
.	.	.	16cc#\JJ)	.	.
=22	=22	=22	=22	=22	=22
2EE/ 2E	8g#\L 8b	2EE/)	4dd\	.	.
.	8e\J	.	.	.	.
.	4g#\ 4b	.	16dd\LL	.	.
.	.	.	16ee\	.	.
.	.	.	16dd\	.	.
.	.	.	16b\JJ	.	.
=23	=23	=23	=23	=23	=23
!	!	!LO:SIC:s=2AA:v	!	!	!
2AAA/ 2AA	4.c#/ 4.e	(2GG#/	4.a\	.	.
.	8d/ 8g#	.	16cc#\LL	.	.
.	.	.	16b\JJ	.	.
=24	=24	=24	=24	=24	=24
4AAA/ 4AA	4c#/ 4a	2AA/) 2E	4a\	-te	-my.
!	!LO:TX:a:Bi:t=dal Segno	!	!	!	!
4AA/ 4A	4r	.	4r	.	.
!LO:TX:t=[segno]:problem=znak segno na kresce taktowej po t. 24	!LO:TX:t=[segno]:problem=znak segno na kresce taktowej po t. 24	!LO:TX:t=[segno]:problem=znak segno na kresce taktowej po t. 24	!LO:TX:t=[segno]:problem=znak segno na kresce taktowej po t. 24	!	!
.	.	.	.	.	.
=25||	=25||	=25||	=25||	=25||	=25||
*>C	*>C	*>C	*>C	*	*
*	*^	*	*	*	*
[2AA\ [2A	[4ee/	2a\ 2cc#	[2AA/ (>2E	2r	.	.
.	16ee/LL]	.	.	.	.	.
.	16ff#/	.	.	.	.	.
.	16gg#/	.	.	.	.	.
.	16aa/JJ	.	.	.	.	.
=26	=26	=26	=26	=26	=26	=26
2AA\_ 2A_	8ee/L	2a\ 2ccn	2AA/_ [2F#)	2r	.	.
.	8dd#X/	.	.	.	.	.
.	8ff#/	.	.	.	.	.
.	8dd#/J	.	.	.	.	.
=27	=27	=27	=27	=27	=27	=27
2AA\_ 2A_	8ee/L	2a\ 2ccn	2AA/_ (>2F#]	2r	.	.
.	8dd#X/	.	.	.	.	.
.	8ff#/	.	.	.	.	.
.	8dd#/J	.	.	.	.	.
=28	=28	=28	=28	=28	=28	=28
2AA\_ 2A_	4.ee/	4.a\ 4.cc#X	2AA\_ [2E)	2r	.	.
.	8e/ 8a 8cc#	8reyy	.	.	.	.
*	*v	*v	*	*	*	*
=29	=29	=29	=29	=29	=29
2AA\_ 2A_	[<2c#/ [>2e [>2a	2AA\_ 2E_	2r	.	.
=30	=30	=30	=30	=30	=30
4AA\] 4A]	4c#/] 4e] 4a]	4AA\] 4E]	2r	.	.
4r	4r	4r	.	.	.
==	==	==	==	==	==
*-	*-	*-	*-	*-	*-
!!!system-decoration: [s1,s2{(s3,s4)}]
!!!RDF**kern: > = above
!!!RDF**kern: < = below
!!!ENC: Andrzej Kubiczek
!!!END: 2020-03-03
!!!ENC: Marta Lawrence
!!!END: 2020-04-03
!!!YEC: Copyright 2022 Narodowy Instytut Fryderyka Chopina (https://polishscores.org)
!!!YEM: License CC-BY-4.0 (https://creativecommons.org/licenses/by/4.0)
